X:458
T:Cow That Ate The Blanket, The
R:jig
Z:hn-jig-458
M:6/8
L:1/8
K:G
B2A BGD | GAG GBd | ege dBG | ABA AGA |
B2A BGD | GAG GBd | ege dBA |1 BGF G2A :|2 BGF GBd ||
|: ~g3 efg | eag fed | gfg edB | BAG ABc |
B2A BGD | GAG GBd | ege dBA |1 BGF GBd :|2 BGF G2A ||

